X: 33127
T: Princess Brenda
R: slide
M: 12/8
K: Dmajor
|:AB dAB dD/E/F|GA Bdb adB|AB dAB dAB|cd eca4|
AB dAB dD/E/F|GB dGe4|[fAD]z e/f/ed BAF|1 G/A/B AD2 dA/B/d:|2 G/A/B AD2 aA^A||
|:Bf abf BdB|cd eca ece|Bf abf BdB|e/4z/4f/e dfe/f/ e/d/cd|
Bf abf BdB|cd ec[a2e2c2]z2|[fAD]z e/f/ed BAF|1 G/A/B ADA aA^A:|2 G/A/B AD2 dA/B/d||
AB dAB dD/E/F|GA Bdb adB|AB dAB dAB|ca dbe c'a'2|
AB dAB dD/E/F|=GB d[BF]E4|[fAD]z e/f/ed BAF|G/A/B AD2 d'3||

